image/logo.svg

<svg xmlns="http://www.w3.org/2000/svg" viewBox="0 0 960 560" enable-background="new 0 0 960 560"><path fill="#A8395A" d="M32.1 276.7h889.9v6.5h-889.9zm152.1 257.5l-68.4-118.6h133.1l229.1-389.7 229.9 389.7 134.3-.5-69.4 119-294.8-499.7-293.8 499.8zm526.2-114.3l62.3 105.7 61.9-106.2-124.2.5zm-587.1 0l60.9 105.7 62.2-105.7h-123.1zm113.4 20.6l-117.2-19.8"/><path fill="#A8395A" d="M119.5 417.7l129.4-2.1-64.7 114.3zm589.3 1.1l129.4-2.2-64.7 114.4zm-377.1-135.6l291.2-3.2-144.9-245.6z"/><path fill="#97B9E2" d="M32.1 271.3h889.9v6.5h-889.9zm152.1 257.4l-68.4-118.6h133.1l229.1-389.6 229.9 389.7 134.3-.5-69.4 119-294.8-499.7-293.8 499.7zm526.2-114.2l62.3 105.7 62-106.2-124.3.5zm-587.1-.1l60.9 105.7 62.2-105.7h-123.1zm113.4 20.6l-117.2-19.7m0-3l129.4-2.2-64.7 114.3zm589.3 1.1l129.4-2.2-64.7 114.3zm-377.1-135.6l291.2-3.3-144.9-245.5zm-300.3-1.3h889.9v6.5h-889.9zm445.9 248.8l294.8-499.7 69.4 119-134.3-.5-229.9 389.7-229.1-389.6h-133.1l68.4-118.6 293.8 499.7zm356.7-385l-61.9-106.2-62.3 105.7 124.2.5zm-588.3-.4l-62.2-105.7-60.9 105.7h123.1zm-9.6-20.6l-117.3 19.7"/><path fill="#97B9E2" d="M118.8 142l129.4 2.2-64.7-114.3zm589.3-1.1l129.4 2.2-64.7-114.3zm-377.1 135.6l291.2 3.3-144.9 245.5z"/><path fill="#A8395A" d="M31.4 271.1h889.9v6.5h-889.9zm445.9 248.8l294.8-499.7 69.4 119-134.3-.5-229.9 389.7-229.1-389.7h-133.1l68.4-118.6 293.8 499.8zm356.7-385l-61.9-106.2-62.3 105.7 124.2.5zm-588.3-.5l-62.2-105.7-60.9 105.7h123.1zm-9.6-20.6l-117.3 19.7"/><path fill="#A8395A" d="M118.8 136.6l129.4 2.1-64.7-114.3zm589.3-1.1l129.4 2.1-64.7-114.3zm-377.1 135.6l291.2 3.2-144.9 245.6z"/></svg>

<?xml version="1.0" encoding="utf-8"?>
<!-- Generator: Adobe Illustrator 19.1.0, SVG Export Plug-In . SVG Version: 6.00 Build 0)  -->
<!DOCTYPE svg PUBLIC "-//W3C//DTD SVG 1.1//EN" "http://www.w3.org/Graphics/SVG/1.1/DTD/svg11.dtd">
<svg version="1.1" xmlns="http://www.w3.org/2000/svg" xmlns:xlink="http://www.w3.org/1999/xlink" x="0px" y="0px"
	 viewBox="0 0 960 560" enable-background="new 0 0 960 560" xml:space="preserve">
<g id="Layer_1">
</g>
<g id="Layer_5">
	<g>
		<g>
			<g>
				<g>
					<rect x="32.1" y="276.7" fill="#A8395A" width="889.9" height="6.5"/>
				</g>
				<g>
					<g>
						<path fill="#A8395A" d="M184.2,534.2l-68.4-118.6h133.1L478,25.9l229.9,389.7l134.3-0.5l-69.4,119L478,34.4L184.2,534.2z
							 M710.4,419.9l62.3,105.7l61.9-106.2L710.4,419.9z M123.3,419.9l60.9,105.7l62.2-105.7H123.3z"/>
					</g>
					<g>
						<path fill="#A8395A" d="M236.7,440.5"/>
					</g>
					<g>
						<path fill="#A8395A" d="M119.5,420.7"/>
					</g>
				</g>
				<polygon fill="#A8395A" points="119.5,417.7 248.9,415.6 184.2,529.9 				"/>
				<polygon fill="#A8395A" points="708.8,418.8 838.2,416.6 773.5,531 				"/>
				<polygon fill="#A8395A" points="331.7,283.2 622.9,280 478,34.4 				"/>
			</g>
			<g>
				<g>
					<rect x="32.1" y="271.3" fill="#97B9E2" width="889.9" height="6.5"/>
				</g>
				<g>
					<g>
						<path fill="#97B9E2" d="M184.2,528.7l-68.4-118.6h133.1L478,20.5l229.9,389.7l134.3-0.5l-69.4,119L478,29L184.2,528.7z
							 M710.4,414.5l62.3,105.7L834.7,414L710.4,414.5z M123.3,414.4l60.9,105.7l62.2-105.7H123.3z"/>
					</g>
					<g>
						<path fill="#97B9E2" d="M236.7,435"/>
					</g>
					<g>
						<path fill="#97B9E2" d="M119.5,415.3"/>
					</g>
				</g>
				<polygon fill="#97B9E2" points="119.5,412.3 248.9,410.1 184.2,524.4 				"/>
				<polygon fill="#97B9E2" points="708.8,413.4 838.2,411.2 773.5,525.5 				"/>
				<polygon fill="#97B9E2" points="331.7,277.8 622.9,274.5 478,29 				"/>
			</g>
		</g>
		<g>
			<g>
				<g>
					<rect x="31.4" y="276.5" fill="#97B9E2" width="889.9" height="6.5"/>
				</g>
				<g>
					<g>
						<path fill="#97B9E2" d="M477.3,525.3L772.1,25.6l69.4,119l-134.3-0.5L477.3,533.8L248.2,144.2H115.1l68.4-118.6L477.3,525.3z
							 M834,140.3L772.1,34.1l-62.3,105.7L834,140.3z M245.7,139.9L183.5,34.2l-60.9,105.7H245.7z"/>
					</g>
					<g>
						<path fill="#97B9E2" d="M236.1,119.3"/>
					</g>
					<g>
						<path fill="#97B9E2" d="M118.8,139"/>
					</g>
				</g>
				<polygon fill="#97B9E2" points="118.8,142 248.2,144.2 183.5,29.9 				"/>
				<polygon fill="#97B9E2" points="708.1,140.9 837.5,143.1 772.8,28.8 				"/>
				<polygon fill="#97B9E2" points="331,276.5 622.2,279.8 477.3,525.3 				"/>
			</g>
			<g>
				<g>
					<rect x="31.4" y="271.1" fill="#A8395A" width="889.9" height="6.5"/>
				</g>
				<g>
					<g>
						<path fill="#A8395A" d="M477.3,519.9L772.1,20.2l69.4,119l-134.3-0.5L477.3,528.4L248.2,138.7H115.1l68.4-118.6L477.3,519.9z
							 M834,134.9L772.1,28.7l-62.3,105.7L834,134.9z M245.7,134.4L183.5,28.7l-60.9,105.7H245.7z"/>
					</g>
					<g>
						<path fill="#A8395A" d="M236.1,113.8"/>
					</g>
					<g>
						<path fill="#A8395A" d="M118.8,133.5"/>
					</g>
				</g>
				<polygon fill="#A8395A" points="118.8,136.6 248.2,138.7 183.5,24.4 				"/>
				<polygon fill="#A8395A" points="708.1,135.5 837.5,137.6 772.8,23.3 				"/>
				<polygon fill="#A8395A" points="331,271.1 622.2,274.3 477.3,519.9 				"/>
			</g>
		</g>
	</g>
</g>
</svg>
